src/assets/outline/Settings.svg

<?xml version="1.0" encoding="UTF-8"?>
<svg width="24" height="24" viewBox="0 0 24 24" xmlns="http://www.w3.org/2000/svg">
 <path d="m12 17.25c-2.89 0-5.25-2.35-5.25-5.25s2.36-5.25 5.25-5.25 5.25 2.35 5.25 5.25-2.36 5.25-5.25 5.25zm0-9c-2.07 0-3.75 1.68-3.75 3.75s1.68 3.75 3.75 3.75 3.75-1.68 3.75-3.75-1.68-3.75-3.75-3.75z"/>
 <path d="m7 12.75h-5c-0.41 0-0.75-0.34-0.75-0.75s0.34-0.75 0.75-0.75h5c0.41 0 0.75 0.34 0.75 0.75s-0.34 0.75-0.75 0.75z"/>
 <path d="m22 12.75h-5c-0.41 0-0.75-0.34-0.75-0.75s0.34-0.75 0.75-0.75h5c0.41 0 0.75 0.34 0.75 0.75s-0.34 0.75-0.75 0.75z"/>
</svg>

<svg width="24" height="24" viewBox="0 0 24 24"  xmlns="http://www.w3.org/2000/svg">
<path d="M12 17.25C9.11 17.25 6.75 14.9 6.75 12C6.75 9.1 9.11 6.75 12 6.75C14.89 6.75 17.25 9.1 17.25 12C17.25 14.9 14.89 17.25 12 17.25ZM12 8.25C9.93 8.25 8.25 9.93 8.25 12C8.25 14.07 9.93 15.75 12 15.75C14.07 15.75 15.75 14.07 15.75 12C15.75 9.93 14.07 8.25 12 8.25Z" />
<path d="M7 12.75H2C1.59 12.75 1.25 12.41 1.25 12C1.25 11.59 1.59 11.25 2 11.25H7C7.41 11.25 7.75 11.59 7.75 12C7.75 12.41 7.41 12.75 7 12.75Z" />
<path d="M22 12.75H17C16.59 12.75 16.25 12.41 16.25 12C16.25 11.59 16.59 11.25 17 11.25H22C22.41 11.25 22.75 11.59 22.75 12C22.75 12.41 22.41 12.75 22 12.75Z" />
</svg>
